X: 305638
M: 6/8
L: 1/8
K: Bb
f |\
fBB bag | fBB BAB | cEF edc | ^cdB BBB |\
fBB bag | fBB BAB | cFF edc | B3- B2 H|]
(B2c) (d2c) | (g2f) (b2B) | (d2c) (e2A) | B2d F2B |\
z |\
f2e c2d | c3 cde | d2c cBA | B3- "^D.C."B2 |]


